X:4
T:The Maids of Jura
R:Slow March
C:John Maclellan, Dunoon
M:4/4
L:1/8
K:D
[| {g}A3 {d}A {e}A2d2 | {g}Bd3 {g}A4 | {g}f3 g {ag}a3 d | {g}d2 f2 {gef}e4 | 
{g}A3 B {Gdc}d3 c | {g}Bd3 {gef}e4 | {gfg}f3 e f{g}A3 | {gBd}B4 {G}A2 {g}de || 
{gfg}f3 e{A} e3 f | {g}e d3 B {Gdc}d4 |{ag}a3 f {gef}e3 d | {g}e f2 A {g}B4 | 
{g}A3 B {Gdc}d3 c | {g} HB2 Hd2 {gef}e4 | {gfg}f3 e f {g}A3 | "Spey tempo - 112"{gBd}B2 {g}A2 {GAG}A4 |]

